X: 43133
T: Wink And She'll Follow You
R: slip jig
M: 9/8
K: Gmajor
|:E|D2A A2G ABc|E2A AGE G2E|D2A A2G ABc|BAG AGE G2:|
c|c3 e2c ABc|B3 dBG GAB|c3 e2c ABc|BAG AGE G3|
c3 e2c ABc|B3 dBG GBd|gag gdB ABc|BAG AGE G2||

